lib/svgs/normal-text.svg

<?xml version="1.0" encoding="UTF-8" standalone="no"?>
<svg width="20px" height="20px" viewBox="0 0 20 20" version="1.1" xmlns="http://www.w3.org/2000/svg" xmlns:xlink="http://www.w3.org/1999/xlink">
    <defs></defs>
    <g id="Icons" stroke="none" stroke-width="1" fill="none" fill-rule="evenodd">
        <g id="Web" transform="translate(-97.000000, -1418.000000)" fill="#000000">
            <g id="editor/normal-text" transform="translate(97.000000, 1418.000000)">
                <path d="M4.6,2 C4.26862915,2 4,2.26862915 4,2.6 L4,16.6 C4,16.9313708 4.26862915,17.2 4.6,17.2 L16.0545455,17.2 C16.3859163,17.2 16.6545455,16.9313708 16.6545455,16.6 L16.6545455,2.6 C16.6545455,2.26862915 16.3859163,2 16.0545455,2 L4.6,2 M15.4545455,3.20168457 L15.4696899,16 L5.2,16.0151001 L5.2,3.22084961 L15.4545455,3.20168457 M7.14545455,12.6 L9.69090909,12.6 C10.0222799,12.6 10.2909091,12.3313708 10.2909091,12 C10.2909091,11.6686292 10.0222799,11.4 9.69090909,11.4 L7.14545455,11.4 C6.8140837,11.4 6.54545455,11.6686292 6.54545455,12 C6.54545455,12.3313708 6.8140837,12.6 7.14545455,12.6 M7.14545455,9.6 L13.5090909,9.6 C13.8404618,9.6 14.1090909,9.33137085 14.1090909,9 C14.1090909,8.66862915 13.8404618,8.4 13.5090909,8.4 L7.14545455,8.4 C6.8140837,8.4 6.54545455,8.66862915 6.54545455,9 C6.54545455,9.33137085 6.8140837,9.6 7.14545455,9.6 M7.14545455,6.5 L13.5090909,6.5 C13.8404618,6.5 14.1090909,6.23137085 14.1090909,5.9 C14.1090909,5.56862915 13.8404618,5.3 13.5090909,5.3 L7.14545455,5.3 C6.8140837,5.3 6.54545455,5.56862915 6.54545455,5.9 C6.54545455,6.23137085 6.8140837,6.5 7.14545455,6.5" id="Shape"></path>
            </g>
        </g>
    </g>
</svg>

<svg xmlns="http://www.w3.org/2000/svg" viewBox="0 0 20 20">
    <path fill="#000" fill-rule="evenodd" d="M4.6 2a.6.6 0 0 0-.6.6v14a.6.6 0 0 0 .6.6h11.455a.6.6 0 0 0 .6-.6v-14a.6.6 0 0 0-.6-.6H4.6m10.855 1.202L15.47 16l-10.27.015V3.221l10.255-.02M7.145 12.6h2.546a.6.6 0 0 0 0-1.2H7.145a.6.6 0 0 0 0 1.2m0-3h6.364a.6.6 0 1 0 0-1.2H7.145a.6.6 0 1 0 0 1.2m0-3.1h6.364a.6.6 0 1 0 0-1.2H7.145a.6.6 0 1 0 0 1.2"/>
</svg>
